svg/u1f3d8.svg

<svg viewBox="0 0 128 128" xmlns="http://www.w3.org/2000/svg">
  <polygon points="42.22,41.58 42.22,30.96 41.36,31.01 41.36,24.47 49.61,24.42 49.61,30.86 48.76,30.86 48.76,37.1 " fill="#DE7541"/>
  <polygon points="63.86,29.84 42.99,49.86 43.97,74.46 86.22,74.18 85.78,48.14 " fill="#FFF3E1"/>
  <path d="M42.19,74.64l2.03-1.22V49.39l-1.89,1.37C42.33,50.76,42.54,74.64,42.19,74.64z" fill="#5F4E47"/>
  <polygon points="84.2,50.26 84.2,73.62 86.44,74.88 86.44,51.13 " fill="#5F4E47"/>
  <polygon points="64.37,31.22 42.34,51.9 42.21,46.29 64.71,24.97 86.46,47.49 86.44,52.49 " fill="#BDA890"/>
  <path d="M40.09,45.3l-1.22,3.25l3.4,0.04c0,0,21.74-21.27,22.21-21.29c0.57-0.02,21.96,21.19,21.96,21.19 l3.04,0.02L65.83,22.77l-3.44-0.23L40.09,45.3z" fill="#904625"/>
  <path d="M35.94,46.93c-0.66,0.63-0.28,1.54,0.32,1.59c0.62,0.05,3.55,0.04,3.55,0.04l23.66-23.92 c0,0,0.55-0.56,0.94-0.54c0.42,0.02,0.97,0.55,0.97,0.55l23.89,23.83c0,0,1.77,0.04,2.33,0.01c0.92-0.06,1.11-1.11,0.07-2.03 c-0.47-0.42-24.18-24.01-24.58-24.43c-1.18-1.22-1.76-1.93-2.88-1.89c-1.12,0.05-1.79,0.88-2.91,1.91 C60.95,22.36,36.11,46.76,35.94,46.93z" fill="#DC7540"/>
  <path d="M56.9,72.49c0,0,0.09-14.22,0.17-17.53c0.08-3.31,3.19-5.96,6.78-6.05c4.59-0.11,6.74,2.66,6.91,5.89 c0.16,3.23,0.16,17.68,0.16,17.68L56.9,72.49z" fill="#D27857"/>
  <path d="M66.63,62.52c-0.03,0.89,0.33,1.61,1.38,1.61s1.44-0.49,1.51-1.45c0.07-0.86-0.53-1.61-1.51-1.55 S66.66,61.89,66.63,62.52z" fill="#FFBA02"/>
  <path d="M60.16,44.79c0,0,0.07-3.81,0.11-5.62c0.04-1.81,1.74-3.26,3.71-3.31c2.41-0.06,3.69,1.45,3.78,3.22 c0.09,1.77,0.07,5.7,0.07,5.7L60.16,44.79z" fill="#A6CFD6"/>
  <polygon points="11.16,73.63 11.16,63.36 10.34,63.41 10.34,57.08 18.32,57.03 18.32,63.26 17.49,63.26 17.49,69.3 " fill="#AB5832"/>
  <polygon points="33.18,61.86 10.97,83.18 10.94,108.3 55.91,108 56.51,81.34 " fill="#EDE0D6"/>
  <path d="M10.11,109.66l2.2-0.18l-0.03-26.82l-2.02,1.46C10.26,84.13,10.12,109.31,10.11,109.66z" fill="#5F4E47"/>
  <polygon points="54.84,83.59 54.69,108.43 57.22,109.91 57.22,84.52 " fill="#5F4E47"/>
  <polygon points="33.73,63.33 10.23,85.38 10.22,79.28 34.08,56.67 57.24,80.65 57.22,85.97 " fill="#BCAFAA"/>
  <path d="M7.88,78.31l-0.27,3.51l2.62-0.02c0,0,23.11-22.63,23.61-22.65c0.61-0.03,23.38,22.63,23.38,22.63 l3.07,0.02L35.28,54.34l-3.66-0.24L7.88,78.31z" fill="#7F4935"/>
  <path d="M3.5,80.07c-0.7,0.68-0.3,1.7,0.33,1.73c0.56,0.02,3.81,0.02,3.81,0.02L32.8,56.34 c0,0,0.58-0.6,1-0.58c0.45,0.02,1.03,0.59,1.03,0.59L60.21,81.8c0,0,1.89,0.02,2.52,0.04c0.81,0.03,1.07-1.15-0.03-2.13 C62.2,79.26,37.08,54,36.65,53.56c-1.26-1.3-1.88-2.06-3.07-2.01c-1.19,0.05-1.9,0.93-3.1,2.03C30.13,53.91,3.68,79.89,3.5,80.07z" fill="#BB8064"/>
  <path d="M25.77,108.33c0,0,0.09-16.2,0.18-19.72s3.39-6.35,7.22-6.44c4.88-0.12,7.18,2.83,7.35,6.27 c0.17,3.44,0.17,19.88,0.17,19.88L25.77,108.33z" fill="#865C51"/>
  <path d="M36.13,96.65c-0.04,0.95,0.35,1.72,1.47,1.72c1.12,0,1.53-0.53,1.61-1.54 c0.07-0.91-0.56-1.72-1.61-1.65S36.16,95.98,36.13,96.65z" fill="#FFB700"/>
  <polygon points="10.11,109.67 12.3,107.73 54.68,107.72 57.22,109.92 " fill="#BEB4AC"/>
  <path d="M29.25,77.77c0,0,0.07-4.06,0.12-5.98s1.85-3.47,3.95-3.52c2.57-0.06,3.93,1.55,4.02,3.43 c0.1,1.88,0.08,6.07,0.08,6.07L29.25,77.77z" fill="#6CA4AE"/>
  <polygon points="110.19,73.68 110.19,63.41 109.36,63.45 109.36,57.12 117.34,57.08 117.34,63.31 116.52,63.31 116.52,74.35 " fill="#AB5832"/>
  <polygon points="94.14,62.07 71.93,83.39 73.37,109.22 117.06,109.56 117.48,81.55 " fill="#F5E1D1"/>
  <path d="M71.02,110.3l2.22-0.84V82.88l-2.02,1.46C71.22,84.34,71.39,110.3,71.02,110.3z" fill="#5F4E47"/>
  <polygon points="115.8,83.81 115.81,109.4 118.19,110.57 118.18,84.73 " fill="#5F4E47"/>
  <polygon points="94.69,63.54 71.23,86.35 71.18,79.49 95.05,56.88 118.2,80.86 118.18,86.18 " fill="#D2A67C"/>
  <path d="M68.84,78.52l-0.42,3.4l2.78,0.09c0,0,23.11-22.63,23.61-22.65c0.61-0.03,23.39,22.56,23.39,22.56 l3.05,0.02L96.24,54.55l-3.66-0.24L68.84,78.52z" fill="#893F2E"/>
  <path d="M64.46,80.28c-0.61,0.6-0.34,1.53,0.37,1.58c0.39,0.03,3.6,0.06,3.6,0.06l25.33-25.37 c0,0,0.58-0.6,1-0.58c0.45,0.02,1.03,0.59,1.03,0.59l25.46,25.38c0,0,1.96,0.01,2.43-0.01c0.97-0.04,1.29-0.96,0.1-2.16 c-0.47-0.47-25.74-25.56-26.16-26c-1.26-1.3-1.88-2.06-3.07-2.01c-1.19,0.05-1.9,0.93-3.1,2.03C91.09,54.12,64.65,80.1,64.46,80.28z " fill="#C67260"/>
  <path d="M86.74,108.54c0,0,0.09-16.2,0.18-19.72c0.09-3.52,3.39-6.35,7.22-6.44 c4.88-0.12,7.18,2.83,7.35,6.27c0.17,3.44,0.17,19.88,0.17,19.88L86.74,108.54z" fill="#AB5832"/>
  <path d="M97.1,96.86c-0.04,0.95,0.35,1.72,1.47,1.72c1.12,0,1.53-0.53,1.61-1.54 c0.07-0.91-0.56-1.72-1.61-1.65C97.52,95.46,97.12,96.19,97.1,96.86z" fill="#FEB800"/>
  <polygon points="71.07,110.31 73.19,108.36 115.81,108.37 118.18,110.56 " fill="#D4A37D"/>
  <path d="M90.21,77.98c0,0,0.07-4.06,0.12-5.98s1.85-3.47,3.95-3.52c2.57-0.06,3.93,1.55,4.02,3.43 c0.1,1.88,0.08,6.07,0.08,6.07L90.21,77.98z" fill="#6CA4AE"/>
</svg>

<svg viewBox="0 0 128 128" xmlns="http://www.w3.org/2000/svg">
  <defs/>
  <path d="M42.22,41.58 L42.22,30.96 L41.36,31.01 L41.36,24.47 L49.61,24.42 L49.61,30.86 L48.76,30.86 L48.76,37.1 Z" fill="#DE7541"/>
  <path d="M63.86,29.84 L42.99,49.86 L43.97,74.46 L86.22,74.18 L85.78,48.14 Z" fill="#FFF3E1"/>
  <path d="M42.19,74.64 L44.22,73.42 L44.22,49.39 L42.33,50.76 C42.33,50.76 42.54,74.64 42.19,74.64 Z" fill="#5F4E47"/>
  <path d="M84.2,50.26 L84.2,73.62 L86.44,74.88 L86.44,51.13 Z" fill="#5F4E47"/>
  <path d="M64.37,31.22 L42.34,51.9 L42.21,46.29 L64.71,24.97 L86.46,47.49 L86.44,52.49 Z" fill="#BDA890"/>
  <path d="M40.09,45.3 L38.87,48.55 L42.27,48.59 C42.27,48.59 64.01,27.32 64.48,27.3 C65.05,27.28 86.44,48.49 86.44,48.49 L89.48,48.51 L65.83,22.77 L62.39,22.54 L40.09,45.3 Z" fill="#904625"/>
  <path d="M35.94,46.93 C35.28,47.56 35.66,48.47 36.26,48.52 C36.88,48.57 39.81,48.56 39.81,48.56 L63.47,24.64 C63.47,24.64 64.02,24.08 64.41,24.1 C64.83,24.12 65.38,24.65 65.38,24.65 L89.27,48.48 C89.27,48.48 91.04,48.52 91.6,48.49 C92.52,48.43 92.71,47.38 91.67,46.46 C91.2,46.04 67.49,22.45 67.09,22.03 C65.91,20.81 65.33,20.1 64.21,20.14 C63.09,20.19 62.42,21.02 61.3,22.05 C60.95,22.36 36.11,46.76 35.94,46.93 Z" fill="#DC7540"/>
  <path d="M56.9,72.49 C56.9,72.49 56.99,58.27 57.07,54.96 C57.15,51.65 60.26,49 63.85,48.91 C68.44,48.8 70.59,51.57 70.76,54.8 C70.92,58.03 70.92,72.48 70.92,72.48 L56.9,72.49 Z" fill="#D27857"/>
  <path d="M66.63,62.52 C66.6,63.41 66.96,64.13 68.01,64.13 C69.06,64.13 69.45,63.64 69.52,62.68 C69.59,61.82 68.99,61.07 68.01,61.13 C67.03,61.19 66.66,61.89 66.63,62.52 Z" fill="#FFBA02"/>
  <path d="M60.16,44.79 C60.16,44.79 60.23,40.98 60.27,39.17 C60.31,37.36 62.01,35.91 63.98,35.86 C66.39,35.8 67.67,37.31 67.76,39.08 C67.85,40.85 67.83,44.78 67.83,44.78 L60.16,44.79 Z" fill="#A6CFD6"/>
  <path d="M11.16,73.63 L11.16,63.36 L10.34,63.41 L10.34,57.08 L18.32,57.03 L18.32,63.26 L17.49,63.26 L17.49,69.3 Z" fill="#AB5832"/>
  <path d="M33.18,61.86 L10.97,83.18 L10.94,108.3 L55.91,108 L56.51,81.34 Z" fill="#EDE0D6"/>
  <path d="M10.11,109.66 L12.31,109.48 L12.28,82.66 L10.26,84.12 C10.26,84.13 10.12,109.31 10.11,109.66 Z" fill="#5F4E47"/>
  <path d="M54.84,83.59 L54.69,108.43 L57.22,109.91 L57.22,84.52 Z" fill="#5F4E47"/>
  <path d="M33.73,63.33 L10.23,85.38 L10.22,79.28 L34.08,56.67 L57.24,80.65 L57.22,85.97 Z" fill="#BCAFAA"/>
  <path d="M7.88,78.31 L7.61,81.82 L10.23,81.8 C10.23,81.8 33.34,59.17 33.84,59.15 C34.45,59.12 57.22,81.78 57.22,81.78 L60.29,81.8 L35.28,54.34 L31.62,54.1 L7.88,78.31 Z" fill="#7F4935"/>
  <path d="M3.5,80.07 C2.8,80.75 3.2,81.77 3.83,81.8 C4.39,81.82 7.64,81.82 7.64,81.82 L32.8,56.34 C32.8,56.34 33.38,55.74 33.8,55.76 C34.25,55.78 34.83,56.35 34.83,56.35 L60.21,81.8 C60.21,81.8 62.1,81.82 62.73,81.84 C63.54,81.87 63.8,80.69 62.7,79.71 C62.2,79.26 37.08,54 36.65,53.56 C35.39,52.26 34.77,51.5 33.58,51.55 C32.39,51.6 31.68,52.48 30.48,53.58 C30.13,53.91 3.68,79.89 3.5,80.07 Z" fill="#BB8064"/>
  <path d="M25.77,108.33 C25.77,108.33 25.86,92.13 25.95,88.61 C26.04,85.09 29.34,82.26 33.17,82.17 C38.05,82.05 40.35,85 40.52,88.44 C40.69,91.88 40.69,108.32 40.69,108.32 L25.77,108.33 Z" fill="#865C51"/>
  <path d="M36.13,96.65 C36.09,97.6 36.48,98.37 37.6,98.37 C38.72,98.37 39.13,97.84 39.21,96.83 C39.28,95.92 38.65,95.11 37.6,95.18 C36.55,95.25 36.16,95.98 36.13,96.65 Z" fill="#FFB700"/>
  <path d="M10.11,109.67 L12.3,107.73 L54.68,107.72 L57.22,109.92 Z" fill="#BEB4AC"/>
  <path d="M29.25,77.77 C29.25,77.77 29.32,73.71 29.37,71.79 C29.42,69.87 31.22,68.32 33.32,68.27 C35.89,68.21 37.25,69.82 37.34,71.7 C37.44,73.58 37.42,77.77 37.42,77.77 L29.25,77.77 Z" fill="#6CA4AE"/>
  <path d="M110.19,73.68 L110.19,63.41 L109.36,63.45 L109.36,57.12 L117.34,57.08 L117.34,63.31 L116.52,63.31 L116.52,74.35 Z" fill="#AB5832"/>
  <path d="M94.14,62.07 L71.93,83.39 L73.37,109.22 L117.06,109.56 L117.48,81.55 Z" fill="#F5E1D1"/>
  <path d="M71.02,110.3 L73.24,109.46 L73.24,82.88 L71.22,84.34 C71.22,84.34 71.39,110.3 71.02,110.3 Z" fill="#5F4E47"/>
  <path d="M115.8,83.81 L115.81,109.4 L118.19,110.57 L118.18,84.73 Z" fill="#5F4E47"/>
  <path d="M94.69,63.54 L71.23,86.35 L71.18,79.49 L95.05,56.88 L118.2,80.86 L118.18,86.18 Z" fill="#D2A67C"/>
  <path d="M68.84,78.52 L68.42,81.92 L71.2,82.01 C71.2,82.01 94.31,59.38 94.81,59.36 C95.42,59.33 118.2,81.92 118.2,81.92 L121.25,81.94 L96.24,54.55 L92.58,54.31 L68.84,78.52 Z" fill="#893F2E"/>
  <path d="M64.46,80.28 C63.85,80.88 64.12,81.81 64.83,81.86 C65.22,81.89 68.43,81.92 68.43,81.92 L93.76,56.55 C93.76,56.55 94.34,55.95 94.76,55.97 C95.21,55.99 95.79,56.56 95.79,56.56 L121.25,81.94 C121.25,81.94 123.21,81.95 123.68,81.93 C124.65,81.89 124.97,80.97 123.78,79.77 C123.31,79.3 98.04,54.21 97.62,53.77 C96.36,52.47 95.74,51.71 94.55,51.76 C93.36,51.81 92.65,52.69 91.45,53.79 C91.09,54.12 64.65,80.1 64.46,80.28 Z" fill="#C67260"/>
  <path d="M86.74,108.54 C86.74,108.54 86.83,92.34 86.92,88.82 C87.01,85.3 90.31,82.47 94.14,82.38 C99.02,82.26 101.32,85.21 101.49,88.65 C101.66,92.09 101.66,108.53 101.66,108.53 L86.74,108.54 Z" fill="#AB5832"/>
  <path d="M97.1,96.86 C97.06,97.81 97.45,98.58 98.57,98.58 C99.69,98.58 100.1,98.05 100.18,97.04 C100.25,96.13 99.62,95.32 98.57,95.39 C97.52,95.46 97.12,96.19 97.1,96.86 Z" fill="#FEB800"/>
  <path d="M71.07,110.31 L73.19,108.36 L115.81,108.37 L118.18,110.56 Z" fill="#D4A37D"/>
  <path d="M90.21,77.98 C90.21,77.98 90.28,73.92 90.33,72 C90.38,70.08 92.18,68.53 94.28,68.48 C96.85,68.42 98.21,70.03 98.3,71.91 C98.4,73.79 98.38,77.98 98.38,77.98 L90.21,77.98 Z" fill="#6CA4AE"/>
</svg>
